img/icon-delete.svg

<svg fill="none" height="32" viewBox="0 0 32 32" width="32" xmlns="http://www.w3.org/2000/svg"><g fill="#fff"><path d="m12 5c0-1.65685 1.3431-3 3-3h2c1.6569 0 3 1.34315 3 3h6.5c.8284 0 1.5.67157 1.5 1.5s-.6716 1.5-1.5 1.5h-21c-.82843 0-1.5-.67157-1.5-1.5s.67157-1.5 1.5-1.5z"/><path clip-rule="evenodd" d="m6 10h20v16c0 2.2091-1.7909 4-4 4h-12c-2.20914 0-4-1.7909-4-4zm7 6c-.5523 0-1 .4477-1 1v6c0 .5523.4477 1 1 1s1-.4477 1-1v-6c0-.5523-.4477-1-1-1zm5 1c0-.5523.4477-1 1-1s1 .4477 1 1v6c0 .5523-.4477 1-1 1s-1-.4477-1-1z" fill-rule="evenodd"/></g></svg>

<svg width="32" height="32" viewBox="0 0 32 32" fill="none" xmlns="http://www.w3.org/2000/svg">
<path d="M12 5C12 3.34315 13.3431 2 15 2H17C18.6569 2 20 3.34315 20 5H26.5C27.3284 5 28 5.67157 28 6.5C28 7.32843 27.3284 8 26.5 8H5.5C4.67157 8 4 7.32843 4 6.5C4 5.67157 4.67157 5 5.5 5H12Z" fill="white"/>
<path fill-rule="evenodd" clip-rule="evenodd" d="M6 10H26V26C26 28.2091 24.2091 30 22 30H10C7.79086 30 6 28.2091 6 26V10ZM13 16C12.4477 16 12 16.4477 12 17V23C12 23.5523 12.4477 24 13 24C13.5523 24 14 23.5523 14 23V17C14 16.4477 13.5523 16 13 16ZM18 17C18 16.4477 18.4477 16 19 16C19.5523 16 20 16.4477 20 17V23C20 23.5523 19.5523 24 19 24C18.4477 24 18 23.5523 18 23V17Z" fill="white"/>
</svg>
